libs/ui/packages/crypto-icons/src/svg/MNX.svg

<svg width="24" height="24" viewBox="0 0 24 24" fill="none">
<path fill-rule="evenodd" clip-rule="evenodd" d="M11.1473 20.2395C6.99 19.8038 3.75 16.281 3.75 12C3.75 7.719 6.99 4.19625 11.1473 3.7605V6.288C9.78343 6.49821 8.53997 7.18983 7.64201 8.23761C6.74405 9.28539 6.25095 10.6201 6.252 12C6.25095 13.3799 6.74405 14.7146 7.64201 15.7624C8.53997 16.8102 9.78343 17.5018 11.1473 17.712V20.2395ZM12.7785 3.75C16.701 4.10925 19.8307 7.21275 20.2395 11.1277H17.7172C17.5296 9.89328 16.9469 8.75288 16.0565 7.87749C15.1661 7.0021 14.016 6.43888 12.7785 6.27225V3.75ZM20.25 12.7628C19.8885 16.7303 16.737 19.8878 12.7785 20.25V17.7277C14.0348 17.5586 15.2005 16.9809 16.0959 16.0836C16.9913 15.1863 17.5665 14.0194 17.733 12.7628H20.25Z" fill="white"/>
<path fill-rule="evenodd" clip-rule="evenodd" d="M11.1473 20.2395C6.99 19.8038 3.75 16.281 3.75 12C3.75 7.719 6.99 4.19625 11.1473 3.7605V6.288C9.78343 6.49821 8.53997 7.18983 7.64201 8.23761C6.74405 9.28539 6.25095 10.6201 6.252 12C6.25095 13.3799 6.74405 14.7146 7.64201 15.7624C8.53997 16.8102 9.78343 17.5018 11.1473 17.712V20.2395ZM12.7785 3.75C16.701 4.10925 19.8307 7.21275 20.2395 11.1277H17.7172C17.5296 9.89328 16.9469 8.75288 16.0565 7.87749C15.1661 7.0021 14.016 6.43888 12.7785 6.27225V3.75ZM20.25 12.7628C19.8885 16.7303 16.737 19.8878 12.7785 20.25V17.7277C14.0348 17.5586 15.2005 16.9809 16.0959 16.0836C16.9913 15.1863 17.5665 14.0194 17.733 12.7628H20.25Z" fill="#00ADEF"/>
</svg>

<svg width="24" height="24" viewBox="0 0 24 24" fill="none"><path fill="#fff" fill-rule="evenodd" d="M11.147 20.24C6.99 19.804 3.75 16.28 3.75 12s3.24-7.804 7.397-8.24v2.528A5.775 5.775 0 0 0 6.252 12a5.775 5.775 0 0 0 4.895 5.712zm1.631-16.49a8.28 8.28 0 0 1 7.461 7.378h-2.522a5.775 5.775 0 0 0-4.938-4.856zm7.472 9.013c-.361 3.967-3.513 7.125-7.472 7.487v-2.522a5.775 5.775 0 0 0 4.955-4.965z" clip-rule="evenodd"/><path fill="#00adef" fill-rule="evenodd" d="M11.147 20.24C6.99 19.804 3.75 16.28 3.75 12s3.24-7.804 7.397-8.24v2.528A5.775 5.775 0 0 0 6.252 12a5.775 5.775 0 0 0 4.895 5.712zm1.631-16.49a8.28 8.28 0 0 1 7.461 7.378h-2.522a5.775 5.775 0 0 0-4.938-4.856zm7.472 9.013c-.361 3.967-3.513 7.125-7.472 7.487v-2.522a5.775 5.775 0 0 0 4.955-4.965z" clip-rule="evenodd"/></svg>
